public/assets/ui/arrow-left-circle.svg

<svg version="1.1" id="_x32_" xmlns="http://www.w3.org/2000/svg" viewBox="0 0 512 512" xml:space="preserve">
<path d="M256,0C114.613,0,0,114.613,0,256s114.613,256,256,256c141.387,0,256-114.613,256-256S397.387,0,256,0z M358.395,285.46H240.596l49.726,47.314c11.782,11.194,12.25,29.863,1.032,41.646c-11.218,11.798-29.863,12.266-41.653,1.032L127.709,259.396c-0.927-0.888-1.452-2.113-1.452-3.396c0-1.282,0.524-2.508,1.452-3.395L249.702,136.54c11.79-11.226,30.435-10.766,41.653,1.032c11.218,11.79,10.75,30.452-1.032,41.653l-49.726,47.307h117.799c16.282,0,29.467,13.185,29.467,29.467S374.678,285.46,358.395,285.46z" fill="#00ff72"/>
</svg>

<svg width="512" height="512" viewBox="0 0 512 512" fill="none" xmlns="http://www.w3.org/2000/svg">
<g clip-path="url(#clip0_1_4)">
<path d="M256 0C114.613 0 0 114.613 0 256C0 397.387 114.613 512 256 512C397.387 512 512 397.387 512 256C512 114.613 397.387 0 256 0ZM358.395 285.46H240.596L290.322 332.774C302.104 343.968 302.572 362.637 291.354 374.42C280.136 386.218 261.491 386.686 249.701 375.452L127.709 259.396C126.782 258.508 126.257 257.283 126.257 256C126.257 254.718 126.781 253.492 127.709 252.605L249.702 136.54C261.492 125.314 280.137 125.774 291.355 137.572C302.573 149.362 302.105 168.024 290.323 179.225L240.597 226.532H358.396C374.678 226.532 387.863 239.717 387.863 255.999C387.863 272.281 374.678 285.46 358.395 285.46Z" fill="#00FF72"/>
<path d="M358.395 285.46H240.596L290.322 332.774C302.104 343.968 302.572 362.637 291.354 374.42C280.136 386.218 261.491 386.686 249.701 375.452L127.709 259.396C126.782 258.508 126.257 257.283 126.257 256C126.257 254.718 126.781 253.492 127.709 252.605L249.702 136.54C261.492 125.314 280.137 125.774 291.355 137.572C302.573 149.362 302.105 168.024 290.323 179.225L240.597 226.532H358.396C374.678 226.532 387.863 239.717 387.863 255.999C387.863 272.281 374.678 285.46 358.395 285.46Z" fill="black"/>
</g>
<defs>
<clipPath id="clip0_1_4">
<rect width="512" height="512" fill="white"/>
</clipPath>
</defs>
</svg>
